X:3931
T:Maidhc Dainnin \'O S\'e's Slide
O:england
R:slide
M:6/8
K:D
f2a g2e|fed B2A|def agf|e3 a2g|
f2a g2e|fed B2A|dcd f2e|1 d3 d2e:|2 d3 d2f||
|:e3 efg|a3 agf|e2e efe|d2B BAB|
e3 efg|a3 agf|efe dcB|1 A3 A2f:|2 A3 a2g||


